X:1
T:Title
%%score 1 { 2 | 3 }
L:1/8
Q:1/4=105
M:4/4
K:G
V:1 treble nm="Grand Piano, Staff 1"
V:2 bass nm="Choir Pad, Staff 2"
V:3 bass 
V:1
 [EG]2 [DG]2 [CG]3 [CF] | [B,E]2 [B,^D]2 [DF]2 E2 | [GB]2 [FB]2 [EB]3 [EA] | [EG]2 [EA]2 [^DF]4 | %4
w: By~Caradog~Roberts~(1878\-1935) * * *||||
 [EG]2 [DG]2 [CG]3 [CF] | [B,E]2 [B,^D]2 [DF]2 E2 | [GB]2 [FA]2 [Gd]3 G | [EA]2 [FB]2 G4 | %8
w: ||||
 B2 B2 [^DB]3 [EB] | [AB]2 [GB]2 [GB]2 [FB]2 | d2 d2 [Fd]3 [Gd] | [cd]2 [Bd]2 [Ad]4 | %12
w: ||||
 B2 B2 [Ge]3 [Ge] | [Gd]2 [Fc]2 [GB]2 [FA]2 | [EG]2 [DG]2 [CG]3 [CF] | [B,E]2 [B,^D]2 [B,E]4- | %16
w: ||||
 [B,E]4 z4 |] %17
w: |
V:2
 B,2 B,2 A,3 A, | G,2 F,2 A,2 G,2 | B,2 B,2[K:treble] C3 C | B,2 C2 B,4 | B,2 B,2 A,3 A, | %5
 G,2 F,2 A,2 G,2 | D2 D2 D3 B, | C2 C2[K:bass] B,4 | B,2 B,2 B,3 B, | ^D2 E2 E2 D2 | D2 D2 D3 D | %11
 F2 G2 F4 | B,2 B,2 C3 C | D2 D2 D2 C2 | B,2 B,2 A,3 A, | G,2 F,A, G,4- | G,4 z4 |] %17
V:3
 E,2 E,2 A,,3 A,, | B,,2 B,,2 E,2 E,2 | E,2 D,2 C,3 C, | E,2 A,,2 B,,4 | E,2 E,2 A,,3 A,, | %5
 B,,2 B,,2 E,2 E,2 | D,2 C,2 B,,3 E, | C,2 D,2 G,4 | z4 A,3 G, | F,2 E,G, B,2 B,2 | z4 C3 B, | %11
 A,2 G,B, D4 | z8 | B,2 A,2 G,2 D,2 | E,2 E,2 A,,3 A,, | B,,2 B,,2 E,4- | E,4 z4 |] %17

